assets/img/cds-data-privacy.svg

<svg fill="none" height="71" viewBox="0 0 60 71" width="60" xmlns="http://www.w3.org/2000/svg" xmlns:xlink="http://www.w3.org/1999/xlink"><mask id="a" fill="#fff"><path d="m29.9358.500207c-.5458.013951-1.0725.205914-1.4989.546873 0 0-2.2824 1.82814-4.8972 3.9207-4.7975 3.83814-10.2344 6.79852-16.06429 8.74052-3.09042 1.0302-5.7667 1.9192-5.7667 1.9192-.49777.1657-.930797.4843-1.237725.9107-.306357.4258-.47154074.9375-.4709836 1.462v10.7421c0 18.61 11.6577986 35.2471 29.1456986 41.6071.2723.0993.5597.1506.8493.1512h.01c.2896-.0006.577-.0519.8493-.1512 17.4872-6.3589 29.1457-22.9957 29.1457-41.6071v-10.7421c.0006-.5246-.1646-1.0363-.4715-1.462-.3064-.4264-.7394-.745-1.2372-.9107 0 0-2.6763-.889-5.7667-1.9192-5.8299-1.942-11.2673-4.90167-16.0643-8.74052-2.6155-2.09256-4.8972-3.9207-4.8972-3.9207-.4604-.368302-1.0363-.561944-1.6262-.546873zm.0636 5.703133c.8572.68527 1.5586 1.24554 3.3399 2.67071 5.2578 4.20645 11.2171 7.44695 17.6071 9.57525 2.1707.7238 3.0775 1.0274 4.053 1.3527v8.9403c0 16.1928-9.9912 30.5528-25 36.4399-15.0085-5.8879-24.99994-20.2471-24.99994-36.4399v-8.9403c.97489-.3253 1.88171-.6289 4.05299-1.3527 6.38995-2.1283 12.34985-5.3683 17.60715-9.57525 1.7812-1.42523 2.4827-1.98543 3.3398-2.67071z" fill="#fff"/></mask><mask id="b" fill="#fff"><path clip-rule="evenodd" d="m30.0084 27.9902c-1.3298 0-2.6043.5284-3.5441 1.4693-.9397.9402-1.4671 2.216-1.466 3.5457.0022 1.7895.9587 3.4425 2.51 4.336v5.6639c-.0095.6691.2494 1.3142.7193 1.7908.4699.4765 1.1116.7444 1.7807.7444s1.3103-.2679 1.7802-.7444c.4698-.4766.7293-1.1217.7198-1.7908v-5.6691c1.5497-.8923 2.5062-2.543 2.5094-4.3308.0017-1.3298-.5256-2.6055-1.4654-3.5457-.9397-.9409-2.2148-1.4693-3.5441-1.4693z" fill="#fff" fill-rule="evenodd"/></mask><g fill="#2563eb" stroke="#fff" stroke-width="2"><path d="m29.9358.500207c-.5458.013951-1.0725.205914-1.4989.546873 0 0-2.2824 1.82814-4.8972 3.9207-4.7975 3.83814-10.2344 6.79852-16.06429 8.74052-3.09042 1.0302-5.7667 1.9192-5.7667 1.9192-.49777.1657-.930797.4843-1.237725.9107-.306357.4258-.47154074.9375-.4709836 1.462v10.7421c0 18.61 11.6577986 35.2471 29.1456986 41.6071.2723.0993.5597.1506.8493.1512h.01c.2896-.0006.577-.0519.8493-.1512 17.4872-6.3589 29.1457-22.9957 29.1457-41.6071v-10.7421c.0006-.5246-.1646-1.0363-.4715-1.462-.3064-.4264-.7394-.745-1.2372-.9107 0 0-2.6763-.889-5.7667-1.9192-5.8299-1.942-11.2673-4.90167-16.0643-8.74052-2.6155-2.09256-4.8972-3.9207-4.8972-3.9207-.4604-.368302-1.0363-.561944-1.6262-.546873zm.0636 5.703133c.8572.68527 1.5586 1.24554 3.3399 2.67071 5.2578 4.20645 11.2171 7.44695 17.6071 9.57525 2.1707.7238 3.0775 1.0274 4.053 1.3527v8.9403c0 16.1928-9.9912 30.5528-25 36.4399-15.0085-5.8879-24.99994-20.2471-24.99994-36.4399v-8.9403c.97489-.3253 1.88171-.6289 4.05299-1.3527 6.38995-2.1283 12.34985-5.3683 17.60715-9.57525 1.7812-1.42523 2.4827-1.98543 3.3398-2.67071z" mask="url(#a)"/><path clip-rule="evenodd" d="m30.0084 27.9902c-1.3298 0-2.6043.5284-3.5441 1.4693-.9397.9402-1.4671 2.216-1.466 3.5457.0022 1.7895.9587 3.4425 2.51 4.336v5.6639c-.0095.6691.2494 1.3142.7193 1.7908.4699.4765 1.1116.7444 1.7807.7444s1.3103-.2679 1.7802-.7444c.4698-.4766.7293-1.1217.7198-1.7908v-5.6691c1.5497-.8923 2.5062-2.543 2.5094-4.3308.0017-1.3298-.5256-2.6055-1.4654-3.5457-.9397-.9409-2.2148-1.4693-3.5441-1.4693z" fill-rule="evenodd" mask="url(#b)"/></g></svg>

<svg width="60" height="71" viewBox="0 0 60 71" fill="none" xmlns="http://www.w3.org/2000/svg">
<mask id="path-1-inside-1_3188_471" fill="white">
<path d="M29.9358 0.500207C29.39 0.514158 28.8633 0.706121 28.4369 1.04708C28.4369 1.04708 26.1545 2.87522 23.5397 4.96778C18.7422 8.80592 13.3053 11.7663 7.47541 13.7083C4.38499 14.7385 1.70871 15.6275 1.70871 15.6275C1.21094 15.7932 0.777913 16.1118 0.470985 16.5382C0.164628 16.964 -0.000555737 17.4757 1.40475e-06 18.0002V28.7423C1.40475e-06 47.3523 11.6578 63.9894 29.1457 70.3494C29.418 70.4487 29.7054 70.5 29.995 70.5006H30.005C30.2946 70.5 30.582 70.4487 30.8543 70.3494C48.3415 63.9905 60 47.3537 60 28.7423V18.0002C60.0006 17.4756 59.8354 16.9639 59.5285 16.5382C59.2221 16.1118 58.7891 15.7932 58.2913 15.6275C58.2913 15.6275 55.615 14.7385 52.5246 13.7083C46.6947 11.7663 41.2573 8.80663 36.4603 4.96778C33.8448 2.87522 31.5631 1.04708 31.5631 1.04708C31.1027 0.678778 30.5268 0.485136 29.9369 0.500207H29.9358ZM29.9994 6.20334C30.8566 6.88861 31.558 7.44888 33.3393 8.87405C38.5971 13.0805 44.5564 16.321 50.9464 18.4493C53.1171 19.1731 54.0239 19.4767 54.9994 19.802V28.7423C54.9994 44.9351 45.0082 59.2951 29.9994 65.1822C14.9909 59.2943 4.99946 44.9351 4.99946 28.7423V19.802C5.97435 19.4767 6.88117 19.1731 9.05245 18.4493C15.4424 16.321 21.4023 13.081 26.6596 8.87405C28.4408 7.44882 29.1423 6.88862 29.9994 6.20334Z"/>
</mask>
<path d="M29.9358 0.500207C29.39 0.514158 28.8633 0.706121 28.4369 1.04708C28.4369 1.04708 26.1545 2.87522 23.5397 4.96778C18.7422 8.80592 13.3053 11.7663 7.47541 13.7083C4.38499 14.7385 1.70871 15.6275 1.70871 15.6275C1.21094 15.7932 0.777913 16.1118 0.470985 16.5382C0.164628 16.964 -0.000555737 17.4757 1.40475e-06 18.0002V28.7423C1.40475e-06 47.3523 11.6578 63.9894 29.1457 70.3494C29.418 70.4487 29.7054 70.5 29.995 70.5006H30.005C30.2946 70.5 30.582 70.4487 30.8543 70.3494C48.3415 63.9905 60 47.3537 60 28.7423V18.0002C60.0006 17.4756 59.8354 16.9639 59.5285 16.5382C59.2221 16.1118 58.7891 15.7932 58.2913 15.6275C58.2913 15.6275 55.615 14.7385 52.5246 13.7083C46.6947 11.7663 41.2573 8.80663 36.4603 4.96778C33.8448 2.87522 31.5631 1.04708 31.5631 1.04708C31.1027 0.678778 30.5268 0.485136 29.9369 0.500207H29.9358ZM29.9994 6.20334C30.8566 6.88861 31.558 7.44888 33.3393 8.87405C38.5971 13.0805 44.5564 16.321 50.9464 18.4493C53.1171 19.1731 54.0239 19.4767 54.9994 19.802V28.7423C54.9994 44.9351 45.0082 59.2951 29.9994 65.1822C14.9909 59.2943 4.99946 44.9351 4.99946 28.7423V19.802C5.97435 19.4767 6.88117 19.1731 9.05245 18.4493C15.4424 16.321 21.4023 13.081 26.6596 8.87405C28.4408 7.44882 29.1423 6.88862 29.9994 6.20334Z" fill="#2563eb" stroke="white" stroke-width="2" mask="url(#path-1-inside-1_3188_471)"/>
<mask id="path-2-inside-2_3188_471" fill="white">
<path fill-rule="evenodd" clip-rule="evenodd" d="M30.0084 27.9902C28.6786 27.9902 27.4041 28.5186 26.4643 29.4595C25.5246 30.3997 24.9972 31.6755 24.9983 33.0052C25.0005 34.7947 25.957 36.4477 27.5083 37.3412V43.0051C27.4988 43.6742 27.7577 44.3193 28.2276 44.7959C28.6975 45.2724 29.3392 45.5403 30.0083 45.5403C30.6774 45.5403 31.3186 45.2724 31.7885 44.7959C32.2583 44.3193 32.5178 43.6742 32.5083 43.0051V37.336C34.058 36.4437 35.0145 34.793 35.0177 33.0052C35.0194 31.6754 34.4921 30.3997 33.5523 29.4595C32.6126 28.5186 31.3375 27.9902 30.0082 27.9902H30.0084Z"/>
</mask>
<path fill-rule="evenodd" clip-rule="evenodd" d="M30.0084 27.9902C28.6786 27.9902 27.4041 28.5186 26.4643 29.4595C25.5246 30.3997 24.9972 31.6755 24.9983 33.0052C25.0005 34.7947 25.957 36.4477 27.5083 37.3412V43.0051C27.4988 43.6742 27.7577 44.3193 28.2276 44.7959C28.6975 45.2724 29.3392 45.5403 30.0083 45.5403C30.6774 45.5403 31.3186 45.2724 31.7885 44.7959C32.2583 44.3193 32.5178 43.6742 32.5083 43.0051V37.336C34.058 36.4437 35.0145 34.793 35.0177 33.0052C35.0194 31.6754 34.4921 30.3997 33.5523 29.4595C32.6126 28.5186 31.3375 27.9902 30.0082 27.9902H30.0084Z" fill="#2563eb" stroke="white" stroke-width="2" mask="url(#path-2-inside-2_3188_471)"/>
</svg>
